packages/astro-components-stencil/src/icons/phonelink.svg

<svg xmlns="http://www.w3.org/2000/svg" viewBox="0 0 24 24"><g xmlns="http://www.w3.org/2000/svg" id="phonelink" fill-rule="nonzero">
            <path d="M4 7c0-.55.45-1 1-1h16c.55 0 1-.45 1-1s-.45-1-1-1H4c-1.1 0-2 .9-2 2v11h-.5c-.83 0-1.5.67-1.5 1.5S.67 20 1.5 20h11c.83 0 1.5-.67 1.5-1.5s-.67-1.5-1.5-1.5H4V7zm19 1h-6c-.55 0-1 .45-1 1v10c0 .55.45 1 1 1h6c.55 0 1-.45 1-1V9c0-.55-.45-1-1-1zm-1 9h-4v-7h4v7z"/>
        </g></svg>

<svg width="24" height="24" viewBox="0 0 24 24" fill="none" xmlns="http://www.w3.org/2000/svg">
<path fill-rule="evenodd" clip-rule="evenodd" d="M4 7C4 6.45 4.45 6 5 6H21C21.55 6 22 5.55 22 5C22 4.45 21.55 4 21 4H4C2.9 4 2 4.9 2 6V17H1.5C0.67 17 0 17.67 0 18.5C0 19.33 0.67 20 1.5 20H12.5C13.33 20 14 19.33 14 18.5C14 17.67 13.33 17 12.5 17H4V7ZM23 8H17C16.45 8 16 8.45 16 9V19C16 19.55 16.45 20 17 20H23C23.55 20 24 19.55 24 19V9C24 8.45 23.55 8 23 8ZM18 17H22V10H18V17Z" fill="black"/>
</svg>
